X:6035
T:Gan Ainm 
R:Reel
S:
H:
N:
D:Irish Dancing Tape (P. Acc)
Z:Adrian Scahill
M:4/4
L:1/8
K:D
d2de dAFG|A3^A B=AFA|^EFAB AFED|B,EED E2fe|\
d2de dAFG|A3^A B=AFA|d2Bd AFDF|1 EDCE D2fe:|2 EDCE D2ED||\
CE (3EEE EBAG|F3G ADFA|^G3A BEGB|cBce agfe|\
d2de dAFG|A3^A B=AFA|d2Bd AFDF|EDCE D4:||


